X:38
T:Josefin's Waltz                                                                                   
M:3/4                                                                                               
L:1/4                                                                                               
S:Roger Tallroth                                                                                    
D:Dervish, "At the End of the Day"                                                                  
N:From Gary Chapin                                                                                  
K:G                                                                                                 
DGA|Bdc|BAG|D2E|[GC]>[GC][GC]|EGF|E3|D3|                                                            
DGA|Bdc|BAG|D2E|[GC]>[GC][GC]|CEG|A3|1 A3:|2ABc||                                                   
dBd|g2f|e3|d3|ced|cGA|B>cB|ABc|                                                                     
dBd|g2f|e3|d3|ced|cBA|B>cB|ABc|                                                                     
BAG|F2G|G3|[EC]D[EC]|[FB,]DG|FEF|(G3|1 G)Bc:|2 G3||
